X:1
T:Weep, o mine eyes (517)
T:Weep, o mine eyes
T:John Bennet (c.1570-c.1614)
T: 
T:517
C:John Bennet
%%score 1 2 3 4
L:1/8
Q:1/2=60
M:2/2
K:C
V:1 treble nm="S"
V:2 treble nm="A"
V:3 treble-8 nm="T"
V:4 bass nm="B"
V:1
 z8 | z8 | z8 | z8 | z4 c4- | c4 B2 A2 | ^G4 e4- | e2 d2 c4 | B4 A4- | A2 A2 G4 | G4 F4 | E8- | %12
w: ||||Weep,|_ o mine|eyes, Weep,|_ o mine|eyes, Weep,|_ o mine|eyes and|cease|
 E8 | E8 | z8 | A8 | c8 | B4 e4- | e4 d4 | e8 | z4 E4 | A8 | G4 c4- | c4 (B2 A2) | ^G4 G4 | A4 A4 | %26
w: _|not||A-|las,|these your|_ spring|tides,|A-|las,|these your|_ spring _|tides, me|thinks, in-|
 B8 | E8 | z4 (c4- | c4 B2 A2) | B8 | z4 A4- | A4 G4- | G2 A2 F4 | E4 z4 | z2 G2 A2 B2 | %36
w: crease|not|O|_ _ _|when,|O|_ when|_ be- gin|you|To swell so|
 c3 B A2 A2 | G2 G2 G4 | G4 G4- | G2 G2 F4 | E4 D4 | E8 | E8 |] %43
w: high that I may|drown me in|you, that|_ I may|drown me|in|you?|
V:2
 z8 | E8- | E4 D2 C2 | B,6 B,2 | C2 D2 E4- | E4 E4 | E8 | E6 A,2 | B,4 E4- | E4 E4- | E2 E2 D4 | %11
w: |Weep,|_ o mine|eyes, Weep,|o mine eyes|_ and|cease|not, and|cease not,|_ Weep,|_ o mine|
 D4 C4 | B,8 | ^C4 E4- | E4 F4- | F4 E4- | E4 A4- | A4 ^G4 | A4 A,4 | C8 | B,4 E4- | E4 D4 | %22
w: eyes and|cease|not, A-|* las,|_ these|_ your|_ spring|tides, A-|las,|these your|_ spring|
 E3 D C2 B,2 | A,8 | B,4 E4 | F4 E4 | D8 | ^C8 | z4 (A4- | A4 ^G2 ^F2) | ^G8 | z4 F4- | F4 E4- | %33
w: tides, me thinks, in-|crease|not, me|thinks, in-|crease|not.|O|_ _ _|when,|O|_ when|
 E2 F2 D4 | ^C4 z4 | z2 E2 F2 G2 | A3 G F2 E2 | D2 C2 D4 | E6 E2 | D6 C2 | B,4 A,4 | B,8 | ^C8 |] %43
w: _ be- gin|you|To swell so|high that I may|drown me in|you, that|I may|drown me|in|you?|
V:3
 z4 c4- | c4 B2 A2 | ^G4 A4- | A2 (^G^F G4) | A4 A4- | A4 ^G2 A2 | B3 d c4 | B4 e4- | e2 d2 c4 | %9
w: Weep,|_ o mine|eyes and|* cease _ _|not, Weep,|_ o mine|eyes and cease|not, Weep,|_ o mine|
 B4 c4- | c2 B2 A4 | ^G4 A4- | A4 ^G4 | A8 | z4 A4 | c8 | A4 A4 | e8 | A8 | z8 | E8 | F8 | E4 e4- | %23
w: eyes, Weep,|_ o mine|eyes and|_ cease|not,|A-|las,|these your|spring|tides,||A-|las,|these your|
 e4 d4 | e4 B4- | B2 A2 A4- | A4 ^G4 | A8 | c8 | e8- | e8 | A8 | c6 c2 | A8 | A2 A2 c2 d2 | %35
w: _ spring|tides, me|_ thinks, in-|* crease|not|O|when,|_|O|when be-|gin|you To swell so|
 e3 d c2 B2 | A2 A2 d2 c2 | B2 c4 B2 | c6 c2 | B4 A4 | ^G4 A4- | A4 ^G4 | A8 |] %43
w: high that I may|drown, that I may|drown me in|you, that|I may|drown me|_ in|you?|
V:4
 A,8- | A,4 G,2 F,2 | E,8- | E,4 E,4 | A,,8 | E,4 E,4 | E,6 ^F,2 | ^G,4 A,4 | ^G,4 A,4 | E,8 | %10
w: Weep,|_ o mine|eyes|_ and|cease|not, Weep,|o mine|eyes, Weep,|o mine|eyes,|
 C,4 D,4 | E,8- | E,8 | A,,6 (B,,2 | ^C,4) D,4 | A,,8 | z8 | E,8 | F,8 | E,4 A,4- | A,4 ^G,4 | %21
w: weep and|cease|_|not, and|_ cease|not.||A-|las,|these your|_ spring|
 A,8 | z4 A,,4 | F,8 | E,6 E,2 | D,4 C,4 | B,,8 | A,,8 | A,8 | E,8- | E,8 | F,8 | C,6 C,2 | D,8 | %34
w: tides,|in-|crease|not, me|thinks, in-|crease|not.|O|when,|_|O|when be-|gin|
 A,,2 A,,2 A,2 B,2 | C3 B, A,2 G,2 | F,4 F,4 | G,8 | C,6 C,2 | D,4 D,4 | E,4 F,4 | E,8 | A,,8 |] %43
w: you To swell so|high that I may|drown me|in|you, that|I may|drown me|in|you?|

